X:53
T:Gan Ainm
R:Jig
S:Bernie Stocks, Belfast (fiddle).
H:From Terry Bingham.
N:As played
M:6/8
Z:Bernie Stocks
K:G
|: ABA G2G, | B,DD D2E | DEG AGE | GAB AGA | ~B2A G2G, | B,DD D2E | DEG AGE | GAG G2A :|
|: ~B3 d2B | dge dBA | G2B AGE | GAB AGA | {d}BAB d2B | dge dBA | GAB AGE | GAG G2A :|
<end>
<start>
